X:1
T: The Falkland Beauty
C:
R:Jig
Q:180
K:Bb
M:6/8
L:1/16
de|f2g2e2 d2e2c2|B2A2B2 G2F2E2|D4F2 B4c2|d4c2 c2d2e2|
f2g2e2 d2e2c2|B2A2B2 G2F2E2|D4F2 B4c2|d4B2 B4f2|
b4B2 d4B2|b4B2 d4B2|A4c2 c2d2B2|A4c2 c4f2|
b4B2 d4B2|b4B2 d4B2|A4B2 d4c2|d4B2 B4e2|
d4f2 g4f2|d4f2 g4f2|g4f2 e4d2|d4c2 c6|
d4f2 g4f2|d4f2 g4f2|g4f2 g4a2|b6 b4||
